X:130
T: Fangma Shange
N: C0213
O: China,Yunnan
S: II, 78]
N: In Klammerm stehen Lockrufe fuer Pferde.
N: Vor- und Zwischenspiel weggelassen. 0___0___ mit Fuellwoertern
N: Lockrufe?) unterlegt!
R: Shange. Muma shenghuo]
M: 2/4
L: 1/32
K: D
f6f2f2e2d4 | f3ff2e2d2e2f2e2 | e6d2B8 |
f6e2f2e2d4 | e2f2e2d2B4z4 | e4e2d2B8 |
f6f2f2e2d2B2 | f3ff2e2d2e2f2e2 | e6d2B8 |
f6f2f2e2d4 | e4e2d2B6z2 | e4e2d2B4z4 |
f6f2f2e2d4 | f3ff2e2d2e2f2e2 | e6d2B8 |
f6e2f2e2d4 | e2f2e2d2B4z4 | e4e2d2B8

@@@ Tune index: 6131
